ОкеанВКонцеДороги/svg/corals-left.svg

<svg width="237" height="274" viewBox="0 0 237 274" fill="none" xmlns="http://www.w3.org/2000/svg">
<path d="M69.2315 134.201C69.8057 133.234 72.0467 132.561 72.1828 130.528C72.4006 127.273 65.5653 126.677 65.0881 128.596C63.9184 133.298 61.474 147.666 54.265 143.352C51.3871 141.629 55.442 118.045 58.4179 115.007C59.7229 113.675 66.5538 108.387 62.7705 105.778C60.1715 103.986 55.5429 110.832 53.8998 106.402C53.4266 105.126 50.745 100.214 49.173 103.12C44.5466 111.671 44.3416 127.69 44.2257 136.743L44.2233 136.929C44.101 146.47 53.541 163.371 46.0924 171.668C44.6096 173.319 38.5473 178.367 36.2482 176.356C31.427 172.138 29.6165 164.997 22.5492 163.463C20.9802 164.828 19.533 165.851 17.8807 167.439C16.5249 167.592 13.0737 165.047 10.8144 166.34C-9.5469 177.994 3.87673 273.827 10.5182 273.527C16.1371 273.273 26.5913 254.054 29.6273 249.961C33.4819 244.765 42.9462 237.749 40.2832 230.198C38.0235 223.79 34.6454 218.26 37.9433 211.444C43.9415 199.047 48.4868 196.117 60.1781 189.989C62.9733 188.524 74.306 187.004 74.4604 192.491C74.6009 197.484 74.8259 201.707 75.5768 203.876C78.4573 212.195 91.3668 214.854 89.0787 225.369C88.2102 229.36 74.9174 232.92 76.159 236.686C77.291 240.121 82.8763 241.56 85.2224 244.012C87.031 245.902 93.2958 258.75 95.6143 257.422C102.904 253.247 111.057 240.438 121.173 241.184C125.73 241.52 174.682 254.835 174.083 251.404C173.467 247.87 156.964 237.187 159.837 237.035C167.025 236.655 180.356 230.155 183.692 223.118C184.584 221.235 183.028 216.935 185.347 216.566C193.235 215.309 204.995 209.813 212.12 216.134C213.892 217.707 224.586 226.913 226.091 221.767C227.772 216.023 223.325 208.028 217.792 206.059C200.779 200.005 236.915 198.593 236.872 198.132C236.273 191.773 200.029 191.038 220.28 185.706C224.717 184.538 237.454 185.947 236.282 178.234C235.621 173.887 214.069 175.898 212.711 177.317C207.903 182.342 199.365 207.849 188.531 200.15C183.798 196.788 199.869 182.559 191.218 181.337C180.119 179.769 185.871 198.602 175.839 201.103C164.048 204.043 185.079 170.389 169.135 173.844C162.377 175.308 163.675 206.993 164.119 211.108C164.622 215.765 166.721 219.337 163.993 220.791C156.622 224.719 132.516 233.748 129.13 219.196C128.299 215.626 128.723 209.055 127.179 207.736C122.602 203.829 109.011 237.252 105.457 225.604C102.639 216.368 115.201 203.079 122.978 199.661C124.802 198.859 135.247 201.722 135.941 197.111C136.419 193.936 136.805 190.697 135.972 190.713C133.648 190.759 122.812 193.274 124.334 187.755C124.657 186.583 130.364 180.824 126.289 180.216C111.29 177.976 116.876 199.985 105.705 202.231C100.163 203.345 76.1487 197.091 84.7548 186.173C88.2161 181.782 93.5701 178.013 99.3946 178.198C106.578 178.425 116.399 180.053 122.558 175.127C124.875 173.274 147.996 157.066 147.457 164.438C147.12 169.057 144.781 171.079 144.635 173.265C144.331 177.81 150.355 176.182 152.297 174.394C160.296 167.029 171.269 169.982 181.986 162.676C183.671 161.527 185.328 158.793 187.896 158.878C193.595 159.066 198.116 162.801 203.772 162.724C206.915 162.681 206.584 156.816 204.614 155.432C200.701 152.683 194.943 153.756 191.589 150.607C189.524 148.669 192.485 146.089 194.545 146.093C196.78 146.098 209.466 146.449 205.292 140.187C202.873 136.559 189.677 143.661 189.504 139.888C189.106 131.226 214.267 133.631 206.416 124.554C205.091 123.022 202.78 120.985 200.659 121.53C199.123 121.924 191.587 125.697 191.65 124.083C191.889 117.916 201.33 112.026 196.714 105.101C194.882 102.353 190.554 103.647 189.157 106.093C186.189 111.288 186.161 120.408 180.643 123.892C177.083 126.139 178.093 116.486 177.226 115.272C175.746 113.201 172.352 107.308 168.885 109.621C166.302 111.344 170.254 131.589 171.114 132.587C173.302 135.126 178.767 137.426 178.399 141.158C177.747 147.769 178.161 154.065 175.41 155.707C164.174 162.41 152.549 157.491 159.167 144.301C160.591 141.464 165.222 140.079 164.698 136.335C164.324 133.662 159.997 129.024 157.271 130.745C149.566 135.608 143.107 161.71 127.656 153.108C125.525 151.922 125.818 140.813 128.742 140.6C131.55 140.396 123.373 129.004 116.413 141.079C115.585 142.517 113.744 150.406 110.973 148.867C105.577 145.869 97.0878 134.606 104.435 128.879C111.948 123.023 126.409 124.991 135.489 121.651C140.339 119.866 141.562 113.775 145.967 111.589L146.325 111.412C155.648 106.786 164.347 102.47 174.878 101.335C180.027 100.781 188.371 100.792 189.446 98.66C189.728 98.1025 190.051 95.404 188.817 95.5835C180.548 96.7868 172.549 94.6927 164.365 95.1783C162.742 95.2746 149.787 97.9584 149.667 97.4085C149.172 95.1551 151.911 87.0891 154.298 86.9318C155.976 86.8212 173.15 87.6595 166.162 79.6719C163.491 76.6201 153.729 83.733 151.902 77.9697C151.542 76.8338 150.5 67.108 147.845 70.0844C138.778 80.2491 143.847 120.817 136.44 109.386C132.831 103.817 137.128 85.184 130.326 83.18C119.266 79.9212 133.527 110.9 123.728 110.59C118.987 110.441 113.743 109.349 109.915 106.294C108.166 104.899 106.742 102.422 104.628 102.624C101.23 102.949 99.4224 107.689 95.5316 105.09C91.7107 102.539 94.2626 86.1904 100.047 86.1551C107.68 86.1084 109.655 85.6999 112.808 83.859C118.227 80.6946 121.781 74.665 127.091 71.1162C128.687 70.0499 131.476 70.4806 132.639 68.8108C133.858 67.0613 133.896 60.6556 130.379 61.473C128.31 61.9539 122.451 67.159 121.444 61.8265C120.156 55.0018 129.318 47.3531 118.507 42.9611C115.533 41.7528 114.656 48.819 114.547 50.1734C113.965 57.3385 114.253 68.0999 108.161 73.3993C106.229 75.0793 97.556 75.4695 97.5233 71.6788C97.4783 66.4468 97.7895 63.8327 95.95 61.9471C94.5354 60.4969 91.8405 59.3582 91.4087 57.3117C88.4549 43.3119 110.159 40.1849 107.348 21.6161C103.592 -3.20191 89.6414 46.5971 86.2048 32.5983C84.0507 23.8236 94.9331 8.98016 86.1767 1.34551C85.1427 0.443942 81.2103 -1.10943 80.8083 1.2306C79.6792 7.80319 82.8499 39.7996 76.6121 41.8945C68.7365 44.5394 65.7957 24.0847 60.7375 29.9582C53.1397 38.7807 71.1934 50.5431 76.2798 54.9691C84.5988 62.2078 86.0462 74.6511 86.0969 85.5978C86.1019 86.6838 89.1645 102.889 83.9741 99.783C80.5315 97.7228 81.5296 90.2972 78.149 89.5656C76.9912 89.315 75.6249 90.8956 73.7143 90.4302C62.4804 87.6941 77.9861 63.1417 67.6168 59.4075C63.9959 58.1035 66.8374 87.2591 58.0674 77.6435C56.9683 76.4384 49.8909 63.4812 47.4601 68.4558C42.2231 79.1729 61.5353 91.3208 67.0873 97.395C68.5726 99.02 72.4324 98.6955 72.9913 101.817C74.8832 112.382 104.037 149.73 88.3013 160.087C86.3833 161.349 82.5035 165.252 80.2687 161.864C69.5255 145.576 71.9633 181.518 62.9463 175.741C53.008 169.374 55.9912 158.857 65.0513 151.63C65.5483 151.233 86.8215 141.624 77.6982 139.124C75.8027 138.604 66.72 138.433 69.2315 134.201Z" fill="#210A4F"/>
</svg>

<svg xmlns="http://www.w3.org/2000/svg" width="237" height="274" fill="none" viewBox="0 0 237 274"><path fill="#210a4f" d="M69.232 134.201c.574-.967 2.815-1.64 2.95-3.673.219-3.255-6.617-3.851-7.094-1.932-1.17 4.702-3.614 19.07-10.823 14.756-2.878-1.723 1.177-25.307 4.153-28.345 1.305-1.332 8.136-6.62 4.352-9.229-2.599-1.792-7.227 5.054-8.87.624-.473-1.276-3.155-6.188-4.727-3.282-4.626 8.551-4.831 24.57-4.947 33.623l-.003.186c-.122 9.541 9.318 26.442 1.87 34.739-1.483 1.651-7.546 6.699-9.845 4.688-4.821-4.218-6.631-11.359-13.699-12.893-1.569 1.365-3.016 2.388-4.668 3.976-1.356.153-4.807-2.392-7.067-1.099-20.36 11.654-6.937 107.487-.296 107.187 5.62-.254 16.073-19.473 19.11-23.566 3.854-5.196 13.318-12.212 10.655-19.763-2.26-6.408-5.638-11.938-2.34-18.754 5.999-12.397 10.544-15.327 22.235-21.455 2.795-1.465 14.128-2.985 14.282 2.502.14 4.993.366 9.216 1.117 11.385 2.88 8.319 15.79 10.978 13.502 21.493-.869 3.991-14.162 7.551-12.92 11.317 1.132 3.435 6.717 4.874 9.063 7.326 1.809 1.89 8.074 14.738 10.392 13.41 7.29-4.175 15.443-16.984 25.559-16.238 4.557.336 53.509 13.651 52.91 10.22-.616-3.534-17.119-14.217-14.246-14.369 7.188-.38 20.519-6.88 23.855-13.917.892-1.883-.664-6.183 1.655-6.552 7.888-1.257 19.648-6.753 26.773-.432 1.772 1.573 12.466 10.779 13.971 5.633 1.681-5.744-2.766-13.739-8.299-15.708-17.013-6.054 19.123-7.466 19.08-7.927-.599-6.359-36.843-7.094-16.592-12.426 4.437-1.168 17.174.241 16.002-7.472-.661-4.347-22.213-2.336-23.571-.917-4.808 5.025-13.346 30.532-24.18 22.833-4.733-3.362 11.338-17.591 2.687-18.813-11.099-1.568-5.347 17.265-15.379 19.766-11.791 2.94 9.24-30.714-6.704-27.259-6.758 1.464-5.46 33.149-5.016 37.264.503 4.657 2.602 8.229-.126 9.683-7.371 3.928-31.477 12.957-34.863-1.595-.831-3.57-.407-10.141-1.951-11.46-4.577-3.907-18.168 29.516-21.722 17.868-2.818-9.236 9.744-22.525 17.521-25.943 1.824-.802 12.269 2.061 12.963-2.55.478-3.175.864-6.414.031-6.398-2.324.046-13.16 2.561-11.638-2.958.323-1.172 6.03-6.931 1.955-7.539-14.999-2.24-9.413 19.769-20.584 22.015-5.542 1.114-29.556-5.14-20.95-16.058 3.461-4.391 8.815-8.16 14.64-7.975 7.183.227 17.004 1.855 23.163-3.071 2.317-1.853 25.438-18.061 24.899-10.689-.337 4.619-2.676 6.641-2.822 8.827-.304 4.545 5.72 2.917 7.662 1.129 7.999-7.365 18.972-4.412 29.689-11.718 1.685-1.149 3.342-3.883 5.91-3.798 5.699.188 10.22 3.923 15.876 3.846 3.143-.043 2.812-5.908.842-7.292-3.913-2.749-9.671-1.676-13.025-4.825-2.065-1.938.896-4.518 2.956-4.514 2.235.005 14.921.356 10.747-5.906-2.419-3.628-15.615 3.474-15.788-.299-.398-8.662 24.763-6.257 16.912-15.334-1.325-1.532-3.636-3.569-5.757-3.024-1.536.394-9.072 4.167-9.009 2.553.239-6.167 9.68-12.057 5.064-18.982-1.832-2.748-6.16-1.454-7.557.992-2.968 5.195-2.996 14.315-8.514 17.799-3.56 2.247-2.55-7.406-3.417-8.62-1.48-2.071-4.874-7.964-8.341-5.651-2.583 1.723 1.369 21.968 2.229 22.966 2.188 2.539 7.653 4.839 7.285 8.571-.652 6.611-.238 12.907-2.989 14.549-11.236 6.703-22.861 1.784-16.243-11.406 1.424-2.837 6.055-4.222 5.531-7.966-.374-2.673-4.701-7.311-7.427-5.59-7.705 4.863-14.164 30.965-29.615 22.363-2.131-1.186-1.838-12.295 1.086-12.508 2.808-.204-5.369-11.596-12.329.479-.828 1.438-2.669 9.327-5.44 7.788-5.396-2.998-13.885-14.261-6.538-19.988 7.513-5.856 21.974-3.888 31.054-7.228 4.85-1.785 6.073-7.876 10.478-10.062l.358-.177c9.323-4.626 18.022-8.942 28.553-10.077 5.149-.554 13.493-.543 14.568-2.675.282-.557.605-3.256-.629-3.076-8.269 1.203-16.268-.891-24.452-.406-1.623.097-14.578 2.78-14.698 2.23-.495-2.253 2.244-10.319 4.631-10.476 1.678-.11 18.852.727 11.864-7.26-2.671-3.052-12.433 4.061-14.26-1.702-.36-1.136-1.402-10.862-4.057-7.886-9.067 10.165-3.998 50.733-11.405 39.302-3.609-5.569.688-24.202-6.114-26.206-11.06-3.259 3.201 27.72-6.598 27.41-4.741-.149-9.985-1.241-13.813-4.296-1.749-1.395-3.173-3.872-5.287-3.67-3.398.325-5.206 5.065-9.096 2.466-3.821-2.551-1.27-18.9 4.515-18.935 7.633-.047 9.608-.455 12.761-2.296 5.419-3.164 8.973-9.194 14.283-12.743 1.596-1.066 4.385-.635 5.548-2.305 1.219-1.75 1.257-8.155-2.26-7.338-2.069.48-7.928 5.686-8.935.354-1.288-6.825 7.874-14.474-2.937-18.866-2.974-1.208-3.851 5.858-3.96 7.212-.582 7.166-.294 17.927-6.386 23.226-1.932 1.68-10.605 2.07-10.638-1.72-.045-5.232.267-7.846-1.573-9.732-1.415-1.45-4.11-2.589-4.541-4.635-2.954-14 18.75-17.127 15.939-35.696-3.756-24.818-17.707 24.981-21.143 10.982-2.154-8.774 8.728-23.618-.028-31.252-1.034-.902-4.967-2.455-5.369-.115C79.68 7.803 82.85 39.8 76.612 41.895c-7.875 2.644-10.816-17.81-15.874-11.937C53.14 38.781 71.193 50.543 76.28 54.97c8.319 7.239 9.766 19.682 9.817 30.629.005 1.086 3.068 17.291-2.123 14.185-3.443-2.06-2.444-9.486-5.825-10.217-1.158-.251-2.524 1.33-4.435.864-11.234-2.736 4.272-27.288-6.097-31.023-3.621-1.303-.78 27.852-9.55 18.237-1.099-1.206-8.176-14.163-10.607-9.188-5.237 10.717 14.075 22.865 19.627 28.939 1.486 1.625 5.345 1.3 5.904 4.422 1.892 10.565 31.046 47.913 15.31 58.27-1.918 1.262-5.797 5.165-8.032 1.777-10.744-16.288-8.306 19.654-17.323 13.877-9.938-6.367-6.955-16.884 2.105-24.111.497-.397 21.77-10.006 12.647-12.506-1.895-.52-10.978-.691-8.466-4.923"/></svg>
